svg/translate.svg

<svg xmlns="http://www.w3.org/2000/svg" viewBox="0 0 24 24"><path d="m12.87 15.07-2.54-2.51.03-.03A17.5 17.5 0 0 0 14.07 6H17V4h-7V2H8v2H1v2h11.17C11.5 7.92 10.44 9.75 9 11.35 8.07 10.32 7.3 9.19 6.69 8h-2c.73 1.63 1.73 3.17 2.98 4.56l-5.09 5.02L4 19l5-5 3.11 3.11zM18.5 10h-2L12 22h2l1.12-3h4.75L21 22h2zm-2.62 7 1.62-4.33L19.12 17z"/></svg>

<?xml version="1.0" encoding="UTF-8"?><!DOCTYPE svg PUBLIC "-//W3C//DTD SVG 1.1//EN" "http://www.w3.org/Graphics/SVG/1.1/DTD/svg11.dtd"><svg xmlns="http://www.w3.org/2000/svg" xmlns:xlink="http://www.w3.org/1999/xlink" version="1.1" id="mdi-translate" width="24" height="24" viewBox="0 0 24 24"><path d="M12.87,15.07L10.33,12.56L10.36,12.53C12.1,10.59 13.34,8.36 14.07,6H17V4H10V2H8V4H1V6H12.17C11.5,7.92 10.44,9.75 9,11.35C8.07,10.32 7.3,9.19 6.69,8H4.69C5.42,9.63 6.42,11.17 7.67,12.56L2.58,17.58L4,19L9,14L12.11,17.11L12.87,15.07M18.5,10H16.5L12,22H14L15.12,19H19.87L21,22H23L18.5,10M15.88,17L17.5,12.67L19.12,17H15.88Z" /></svg>
